X: 1
T:Upton on Severn
M:6/8
C:
S:Bordering on the Absurd
N:Stick Dance
A:Border
O:English
R:Jig
%P:
%:NoTeX
L:1/8
K:G
B c
P:A
|:B/c/|kd2 B BAG|AGA  BGE|D2 G GBd|edB A2 \
B/c/|d2 B BAG|AGA  BGE|D2 G GAB|AGA G2:|\
P:B
|:G|G>Bd  g2 d|e>de d>BG|G>Bd  g2 d|e>dB A3|\
G>Bd  g2 d|e>de d>BG|e>ge  d>BG|A>BA G2:|
